assets/img/undraw_ideation_2a64.svg

<svg data-name="Layer 1" xmlns="http://www.w3.org/2000/svg" width="1074.5" height="818"><path fill="#f2f2f2" d="M787 394.71l-15.879 71.42-12.89 57.94-10.274 46.21-12.882 57.94-42.095 189.29-521.617-241.03-38.342-17.72-48.533-22.43-38.355-17.72L0 497.29l26.153-38.05 21.749-31.64 27.513-40.03 21.741-31.62L341.818 0l259.181 229.8 46.154 40.92 36.802 32.63 46.16 40.92L787 394.71z"/><path d="M591.611 484.662l26.945 46.669L645.5 578H537.723l26.944-46.669 26.944-46.669zM325.5 393h113v113h-113z"/><circle cx="519.5" cy="248.5" r="72.5"/><path d="M584.75 369.556a12 12 0 1 1 12 12 12.013 12.013 0 0 1-12-12zm2 0a10 10 0 1 0 10-10 10.011 10.011 0 0 0-10 10zM481.436 578.293l-17.664-18.938 18.938-17.664 17.663 18.938zm-14.849-18.84l14.947 16.025 16.024-14.947-14.946-16.024zM335.554 308.887l-14.376-15.413 15.413-14.376 14.376 15.413zm-12.085-15.333l12.165 13.041 13.042-12.164-12.165-13.042zM450.5 816h624v2h-624zm87-486a100 100 0 1 1 100-100 100.113 100.113 0 0 1-100 100zm0-198a98 98 0 1 0 98 98 98.11 98.11 0 0 0-98-98z" fill="#3f3d56"/><path fill="#3f3d56" d="M450.104 361.568l25.833-53.763 1.803.866-25.833 53.763z"/><path fill="#3f3d56" d="M469.025 434.88l.952-1.76 113.787 61.582-.951 1.758z"/><path d="M470.5 507h-146V361h146zm-144-2h142V363h-142zm360.51 74H535.99l75.51-130.786zm-147.555-2h144.09L611.5 452.214z" fill="#3f3d56"/><circle cx="877.5" cy="337" r="25" fill="#a0616a"/><path d="M890.5 350s3 30 8 35-35-3-35-3 6-25 2-29 25-3 25-3zm17.5 50.5s12 34 15 55 3 30 3 30 13 40 9 59c0 0 15 45 2 45s-17-37-17-37l-20-95z" fill="#a0616a"/><path d="M914 416.5s-3-37-16-40c-6.206-1.432-16.287-3.548-25.128-5.369-15.402-3.17-31.29 4.137-38.29 18.217A25.527 25.527 0 0 0 832 397.5c-2 16-12 16-3 37s7 43 7 43l6 53s-25 70-23 117l-23 115s5 12 19 6c0 0 35-59 32-102l36-80s25 76 32 83l18 108s17 5 25 0c0 0 3-104-14-121 0 0-17-72-13-91s5-48-25-74c0 0 4-11-9-17l10-32z" fill="#2f2e41"/><path d="M851.28 373.884q-.405-.059-.827-.097c-8.854-.8-16.478 6.27-16.873 15.152L832 424.5l-6 39-13 84s-25 30-8 32 20-33 20-33l22-66 9-61s10.497-10.497 6.128-34.765a13.153 13.153 0 0 0-10.848-10.851z" fill="#a0616a"/><path d="M794 758.5l-7 36s-17 8-6 18 26-2 26-2l4-12-1 18h3l3-18s6-11 2-20v-12zm136.5 3.5l-4 33s-17 8-6 18 26-2 26-2l4-12-1 18h3l3-18s6-11 2-20v-12zm-39.959-463.641a21.63 21.63 0 0 0-4.176.415 18.301 18.301 0 0 0-7.972-1.838h-.724c-13.95 0-25.26 12.624-25.26 28.197h4.675l.755-5.746 1.106 5.746h3.895a55.11 55.11 0 0 0-1.81 14.126v28.7h7.068l4.092-10.634-1.023 10.634h45.428l3.72-9.667-.93 9.667h5.115v-22.535c0-25.993-15.204-47.065-33.959-47.065z" fill="#2f2e41"/><path fill="#3f3d56" d="M1029.367 481.54h1.875v335.244h-1.875z"/><ellipse cx="1030.666" cy="704.63" rx="36.557" ry="83.424" fill="#3f3d56"/><ellipse cx="1030.666" cy="514.348" rx="36.557" ry="83.424" fill="#3f3d56"/><path d="M1031.564 446.19l-1.796-.538c.114-.38 11.135-38.147-6.962-62.46-10.22-13.733-27.76-20.695-52.13-20.695v-1.875c24.999 0 43.046 7.22 53.64 21.457 18.656 25.075 7.364 63.724 7.248 64.111z" fill="#3f3d56"/><circle cx="970.676" cy="361.559" r="23.434" fill="#f2f2f2"/></svg>

<svg data-name="Layer 1" xmlns="http://www.w3.org/2000/svg" width="1074.5" height="818"><path fill="#f2f2f2" d="M787 394.71L771.121 466.13 758.231 524.07 747.957 570.28 735.075 628.22 692.98 817.51 171.363 576.48 133.021 558.76 84.488 536.33 46.133 518.61 0 497.29 26.153 459.24 47.902 427.6 75.415 387.57 97.156 355.95 341.818 0 600.999 229.8 647.153 270.72 683.955 303.35 730.115 344.27 787 394.71z"/><path d="M591.611 484.662L618.556 531.331 645.5 578 591.611 578 537.723 578 564.667 531.331 591.611 484.662z"/><path d="M325.5 393H438.5V506H325.5z"/><circle cx="519.5" cy="248.5" r="72.5"/><path d="M584.75 369.556a12 12 0 1 1 12 12 12.013 12.013 0 0 1-12-12zm2 0a10 10 0 1 0 10-10 10.011 10.011 0 0 0-10 10zM481.436 578.293l-17.664-18.938 18.938-17.664 17.663 18.938zm-14.849-18.84l14.947 16.025 16.024-14.947-14.946-16.024zM335.554 308.887l-14.376-15.413 15.413-14.376 14.376 15.413zm-12.085-15.333l12.165 13.041 13.042-12.164-12.165-13.042z" fill="#3f3d56"/><path fill="#3f3d56" d="M450.5 816H1074.5V818H450.5z"/><path d="M537.5 330a100 100 0 1 1 100-100 100.113 100.113 0 0 1-100 100zm0-198a98 98 0 1 0 98 98 98.11 98.11 0 0 0-98-98z" fill="#3f3d56"/><path transform="rotate(-64.336 462.704 405.504)" fill="#3f3d56" d="M496.849 375.119H556.496V377.119H496.849z"/><path transform="rotate(-61.578 523.365 537.945)" fill="#3f3d56" d="M588.144 441.099H590.144V570.482H588.144z"/><path d="M470.5 507h-146V361h146zm-144-2h142V363h-142zm360.51 74H535.99L611.5 448.214zm-147.555-2h144.09L611.5 452.214z" fill="#3f3d56"/><circle cx="877.5" cy="337" r="25" fill="#a0616a"/><path d="M890.5 350s3 30 8 35-35-3-35-3 6-25 2-29 25-3 25-3zm17.5 50.5s12 34 15 55 3 30 3 30 13 40 9 59c0 0 15 45 2 45s-17-37-17-37l-20-95z" fill="#a0616a"/><path d="M914 416.5s-3-37-16-40c-6.206-1.432-16.287-3.548-25.128-5.369-15.402-3.17-31.29 4.137-38.29 18.217A25.527 25.527 0 0 0 832 397.5c-2 16-12 16-3 37s7 43 7 43l6 53s-25 70-23 117l-23 115s5 12 19 6c0 0 35-59 32-102l36-80s25 76 32 83l18 108s17 5 25 0c0 0 3-104-14-121 0 0-17-72-13-91s5-48-25-74c0 0 4-11-9-17l10-32z" fill="#2f2e41"/><path d="M851.28 373.884q-.405-.059-.827-.097c-8.854-.8-16.478 6.27-16.873 15.152L832 424.5l-6 39-13 84s-25 30-8 32 20-33 20-33l22-66 9-61s10.497-10.497 6.128-34.765a13.153 13.153 0 0 0-10.848-10.851z" fill="#a0616a"/><path d="M794 758.5l-7 36s-17 8-6 18 26-2 26-2l4-12-1 18h3l3-18s6-11 2-20v-12zm136.5 3.5l-4 33s-17 8-6 18 26-2 26-2l4-12-1 18h3l3-18s6-11 2-20v-12zm-39.959-463.641a21.63 21.63 0 0 0-4.176.415 18.301 18.301 0 0 0-7.972-1.838h-.724c-13.95 0-25.26 12.624-25.26 28.197h4.675l.755-5.746 1.106 5.746h3.895a55.11 55.11 0 0 0-1.81 14.126v28.7h7.068l4.092-10.634-1.023 10.634h45.428l3.72-9.667-.93 9.667h5.115v-22.535c0-25.993-15.204-47.065-33.959-47.065z" fill="#2f2e41"/><path fill="#3f3d56" d="M1029.367 481.54H1031.242V816.7840000000001H1029.367z"/><ellipse cx="1030.666" cy="704.63" rx="36.557" ry="83.424" fill="#3f3d56"/><ellipse cx="1030.666" cy="514.348" rx="36.557" ry="83.424" fill="#3f3d56"/><path d="M1031.564 446.19l-1.796-.538c.114-.38 11.135-38.147-6.962-62.46-10.22-13.733-27.76-20.695-52.13-20.695v-1.875c24.999 0 43.046 7.22 53.64 21.457 18.656 25.075 7.364 63.724 7.248 64.111z" fill="#3f3d56"/><circle cx="970.676" cy="361.559" r="23.434" fill="#f2f2f2"/></svg>
